packages/web-icons/svgs/minion_pro_7.svg

<svg viewBox="0 0 32 41" xmlns="http://www.w3.org/2000/svg" class="ridi_icon"><path d="M30.9.4H6.1c-.8 2.7-1.7 6.1-3 9.6l2 .8c2.1-3.9 2.8-4.3 6.8-4.3H25c-6.6 10.6-15.1 22-24.3 33l.5.8 6.3-.8c8.1-13 16.4-25.9 23.9-38.5l-.5-.6z"/></svg>

<?xml version="1.0" encoding="UTF-8"?>
<svg width="32px" height="41px" viewBox="0 0 32 41" version="1.1" xmlns="http://www.w3.org/2000/svg">
  <!-- Generator: Sketch 41.2 (35397) - http://www.bohemiancoding.com/sketch -->
  <title>minion_pro_7</title>
  <desc>Created with Sketch.</desc>
  <defs></defs>
  <g id="Page-1" stroke="none" stroke-width="1" fill="none" fill-rule="evenodd">
    <g id="minion_pro_7" fill="#000000">
      <g id="레이어_1">
        <path d="M30.9,0.4 L6.1,0.4 C5.3,3.1 4.4,6.5 3.1,10 L5.1,10.8 C7.2,6.9 7.9,6.5 11.9,6.5 L25,6.5 C18.4,17.1 9.9,28.5 0.7,39.5 L1.2,40.3 L7.5,39.5 C15.6,26.5 23.9,13.6 31.4,1 L30.9,0.4 L30.9,0.4 Z" id="Shape"></path>
      </g>
    </g>
  </g>
</svg>
